X:1
T:Title
%%score { ( 1 3 5 ) | ( 2 4 ) }
L:1/8
Q:1/4=150
M:6/4
K:Db
V:1 treble nm="Grand Piano"
V:3 treble 
V:5 treble 
V:2 bass 
V:4 bass 
V:1
 [DF]2 [EG]2 [_F=G]2 [=FB]2 [FA]2 [DF]2 | [Fe]4 [Fd]2 [Fd]6 | [FB]2 [FA]2 [DF]2 [FB]2 [FA]2 [Ad]2 | %3
w: B.~D.~Ackley * * * * *|||
 [Gc]12 | G2 F2 G2 E2 F2 G2 | d4 c2 c6 | B2 =A2 B2 c4 B2 | A12 | %8
w: |||||
 F2 [EG]2 [_F=G]2 [=FB]2 [FA]2 [DF]2 | [Fe]4 [Fd]2 [Fd]6 | F2 =A2 B2 c2 d2 c2 | [DB]12 | %12
w: ||||
 [D=GB]2 [CGc]2 [Gd]2 [Gd]2 [Gc]2 B2 | z6 c6 | B2 c2 d2 [F=Gd]2 [EGc]2 [DGB]2 | [CGe]12[K:bass] | %16
w: ||||
 [Fd]2 F2 [Fd]2 [Fc]4 [DF]2 | [FB]12 | [FA]2 [FB]2 [FA]2 [DF]2 [Fe]2 [Fd]2 | [Gc]12 | %20
w: ||||
 B2 c2 d2 c2 B2 A2 | [FB]2 [Fc]2 [Fd]2 [FB]2 [FA]2 [DF]2 | [DE]6 [=Ge]6 | [Ge]12 | %24
w: ||||
 [Fd]2 F2 [Fd]2 [Fc]4 [DF]2 | [FB]12 | [B,=DAB]2 [DA_c]2 [DAB]2 [DAB]2 [DF]2 [B,FA]2 | [B,EG]12 | %28
w: ||||
 [GB]2 [Gc]2 [Gd]2 e2 d2 e2 |[M:15/8] [Ff]3- [Ff] [EA]2 [=DFAf]3- [DFAf]6 | %30
w: ||
[M:7/4] z2 z4 f6 z2[Q:1/4=148][Q:1/4=145][Q:1/4=143][Q:1/4=141][Q:1/4=138][Q:1/4=136][Q:1/4=134][Q:1/4=131][Q:1/4=129][Q:1/4=127][Q:1/4=124][Q:1/4=122][Q:1/4=120][Q:1/4=117][Q:1/4=115] | %31
w: |
[M:6/4] d12 |] %32
w: |
V:2
 [D,A,]2 [D,A,]2 [D,B,]2 [D,D]2 [D,D]2 [D,A,]2 | [D,A,]4 [D,A,]2 [D,A,]6 | %2
 [D,D]2 [D,D]2 [D,A,]2 [D,A,]2 [D,D]2 [F,D]2 | [A,E]4 A,2 A,6 | %4
 [A,CE]2 [A,_C=D]2 [A,=CE]2 [A,C]2 [A,_D]2 [A,E]2 | [A,EG]4 [A,EG]2 [A,EG]6 | %6
 [A,CG]2 [A,CG]2 [A,CG]2 [A,EG]4 [A,CG]2 | z2 C2 B,2 A,6 | %8
 [D,A,D]2 [D,A,]2 [D,B,]2 [D,D]2 [D,D]2 [D,A,]2 | [D,A,]4 [D,A,]2 [D,A,]6 | %10
 [F,=A,E]2 [F,CE]2 [F,=G,E]2 [F,A,E]2 [F,A,F]2 [F,A,E]2 | B,,2 D,2 F,2 B,6 | %12
 E,2 E,2 [E,B,]2 [E,B,]2 [E,E]2[K:treble] [DE=G]2 | [CEA]4 [B,E=G]2 .[A,EA]6 | %14
 [DF]2 [CF=A]2 [B,FB]2[K:bass] E,2 E,2 E,2 | A,,2 B,,2 A,,2 G,,2 F,,2 E,,2 | %16
 [D,A,]2 [D,A,]2 [D,A,]2 [D,D]4 [D,A,]2 | [D,D]4 D,2 D,6 | %18
 [D,D]2 [D,D]2 [D,D]2 [D,A,]2 [D,A,]2 [D,A,]2 | [E,A,]2 E,2 E,2 A,6 | %20
 [A,EG]2 [A,EG]2 [A,EG]2 [A,EG]2 [A,DG]2 [A,CG]2 | [D,D]2 [D,D]2 [D,A,]2 [D,A,]2 [D,D]2 [D,A,]2 | %22
 [E,=G,]6 B,4 D2 | A,,2 B,,2 _C,2 =C,2 B,,2 A,,2 | [D,A,]2 [D,A,]2 [D,A,]2 [D,D]4 [D,A,]2 | %25
 [D,D]4 D,2 D,6 | B,,2 [B,,B,]2 [B,,B,]2 [B,,B,]2 [B,,B,]2 =D,2 | E,2 G,2 F,2 E,6 | %28
 [E,E]2 [E,E]2 [E,B,]2 [G,B,G]2 [G,B,G]2 [G,=A,G]2 | %29
[M:15/8] [D,A,]3- [D,A,] [D,D]2 [B,,B,]3- [B,,B,]6 |[M:7/4] z2 z4[K:treble] D2 z2 z4 | %31
[M:6/4][K:bass] z2 C2 B,2 A,6 |] %32
V:3
 x12 | x12 | x12 | z4 E2 E6 | x12 | x12 | x12 | .[DF]4 G2 F6 | x12 | x12 | x12 | B,6 z6 | x12 | %13
 e4 d2 z4 G2 | x12 | z4[K:bass] A,2- A,6 | x12 | z4 D2 D6 | x12 | z2 A,2 A,2 E6 | x12 | x12 | x12 | %23
 z6 =C6 | x12 | z4 D2 D6 | x12 | x12 | x12 |[M:15/8] x15 |[M:7/4] [=Ge]2 [GB]2 [Gd]2 z2 B,4 e2 | %31
[M:6/4] [DF]2 A2 G2 F6 |] %32
V:4
 x12 | x12 | x12 | x12 | x12 | x12 | x12 | D,12 | x12 | x12 | x12 | x12 | x10[K:treble] x2 | x12 | %14
 x6[K:bass] x6 | x12 | x12 | x12 | x12 | x12 | x12 | x12 | z6 E,6 | x12 | x12 | x12 | x12 | x12 | %28
 x12 |[M:15/8] x15 |[M:7/4] [E,B,]2 [E,E]2 [E,E]2[K:treble] [A,A]6 [A,CG]2 |[M:6/4][K:bass] D,12 |] %32
V:5
 x12 | x12 | x12 | x12 | x12 | x12 | x12 | x12 | x12 | x12 | x12 | x12 | x12 | x12 | x12 | %15
 .A,2- .[A,B,]4[K:bass] G,2 F,2 E,2 | x12 | x12 | x12 | x12 | x12 | x12 | x12 | %23
 [A,C]2- [A,-B,C-]2 [A,-_CC]2 A,2- [A,B,]2 A,2 | x12 | x12 | x12 | x12 | x12 |[M:15/8] x15 | %30
[M:7/4] x14 |[M:6/4] x12 |] %32

